src/images/icons/prs.svg

<svg width="16" height="24" viewBox="0 0 16 24" fill="none" xmlns="http://www.w3.org/2000/svg">
<path fill-rule="evenodd" clip-rule="evenodd" d="M3.6685 1.65483C3.60228 1.63665 3.53605 1.61847 3.47025 1.59912L2.62613 1.59915C2.54982 1.62266 2.47306 1.64498 2.3963 1.66729L2.39629 1.66729C2.22894 1.71594 2.06159 1.76458 1.89902 1.82566C0.865748 2.21373 0.281383 2.97622 0.0471612 4.02561C0.0405794 4.05506 0.0284988 4.08329 0.0164156 4.11152L0.016415 4.11152L0.0164143 4.11152C0.0107551 4.12475 0.0050955 4.13797 0 4.15132V4.98659C0.0208897 5.05515 0.0403183 5.12428 0.0597474 5.19342C0.102405 5.34521 0.145065 5.49701 0.203194 5.64276C0.435884 6.22617 0.819247 6.69542 1.35371 7.03507C1.46693 7.107 1.50427 7.1838 1.50414 7.3134C1.50272 8.60439 1.50217 9.89539 1.50162 11.1864C1.50083 13.0153 1.50005 14.8443 1.4968 16.6732C1.49667 16.7561 1.45048 16.8732 1.38608 16.9164C0.651965 17.4092 0.187721 18.0725 0.0361499 18.943C0.0337216 18.957 0.0235868 18.9697 0.0134485 18.9823L0.0134366 18.9824H0.0134351C0.00869416 18.9883 0.00395324 18.9942 0 19.0003V19.8355C0.0130762 19.8818 0.0255919 19.9282 0.0381076 19.9746L0.0381099 19.9746L0.0381373 19.9747C0.0651658 20.075 0.0921964 20.1753 0.124874 20.2738C0.503088 21.4137 1.29802 22.09 2.47657 22.3385C2.51152 22.3459 2.54537 22.3584 2.57921 22.3709C2.59482 22.3767 2.61042 22.3824 2.62613 22.3877H3.47023C3.48607 22.3824 3.50181 22.3766 3.51754 22.3708L3.51756 22.3708L3.51758 22.3707C3.55147 22.3582 3.58536 22.3457 3.62037 22.3384C4.97231 22.0597 6.13785 20.8851 6.09736 19.3875C6.07653 18.6162 5.80941 17.952 5.26853 17.3876C5.28727 17.3726 5.30656 17.3581 5.32586 17.3436C5.36737 17.3125 5.40895 17.2813 5.44522 17.2449C5.90397 16.7848 6.46716 16.5456 7.10953 16.4867C7.34236 16.4653 7.5759 16.4502 7.8094 16.4352L7.80943 16.4352L7.80947 16.4352L7.80952 16.4352C8.15188 16.4131 8.49415 16.391 8.83401 16.3491C10.4858 16.1452 11.7533 15.2989 12.651 13.9451C13.3726 12.857 13.6831 11.623 13.6899 10.3199C13.6906 10.1795 13.7168 10.0855 13.8479 9.99807C14.9806 9.24276 15.4565 7.9296 15.065 6.67222C14.6694 5.40157 13.5228 4.57145 12.1612 4.56985C10.8599 4.56831 9.72112 5.36655 9.30021 6.57536C8.8856 7.76595 9.26052 9.09427 10.3027 9.84702C10.6517 10.0991 10.6779 10.3614 10.6314 10.7056C10.6282 10.7291 10.6253 10.7526 10.6224 10.7762C10.6157 10.8293 10.6091 10.8824 10.5999 10.9351C10.4675 11.6939 10.1805 12.3734 9.5592 12.8737C8.97076 13.3474 8.26818 13.4693 7.5394 13.4759C6.83177 13.4822 6.13927 13.5691 5.46576 13.7839C5.25644 13.8506 5.04975 13.9254 4.83958 14.0014L4.8395 14.0015C4.74328 14.0363 4.64633 14.0713 4.54807 14.106L4.54804 13.2543V13.2543V13.2542C4.54793 11.2473 4.54782 9.24936 4.5533 7.25139C4.55348 7.18604 4.6195 7.10865 4.6745 7.0577C4.77247 6.96701 4.87757 6.88171 4.98258 6.79648C5.18684 6.63071 5.39077 6.46521 5.5412 6.26082C6.7079 4.67586 5.98643 2.47972 4.0914 1.78372C3.95334 1.73303 3.81092 1.69394 3.6685 1.65483ZM12.1629 6.05367C13.0188 6.0602 13.6969 6.72006 13.6937 7.54315C13.6904 8.36621 13.0061 9.02385 12.1531 9.02362C11.3279 9.02338 10.6421 8.34552 10.6455 7.53356C10.649 6.71935 11.338 6.04734 12.1629 6.05367ZM4.54826 4.56541C4.54585 3.76124 3.86975 3.09122 3.05666 3.084C2.29606 3.07724 1.50192 3.75599 1.49691 4.56016C1.49189 5.3637 2.27462 6.04909 3.03973 6.05343C3.85914 6.05811 4.55066 5.37698 4.54826 4.56541ZM4.54913 19.4373C4.53601 20.2431 3.85135 20.9081 3.04011 20.903C2.27705 20.9007 1.49142 20.2141 1.49586 19.4097C1.50029 18.6079 2.29791 17.9247 3.05624 17.9319C3.87757 17.9398 4.56234 18.6277 4.54913 19.4373Z" fill="black"/>
</svg>

<svg width="16" height="24" fill="none" xmlns="http://www.w3.org/2000/svg"><path fill-rule="evenodd" clip-rule="evenodd" d="M3.668 1.655l-.198-.056h-.844c-.076.024-.153.046-.23.068-.167.049-.334.098-.497.159-1.033.388-1.618 1.15-1.852 2.2a.497.497 0 01-.03.086L0 4.152v.835l.06.206c.042.152.085.304.143.45a2.876 2.876 0 001.15 1.392c.114.072.151.149.151.278l-.002 3.873c-.001 1.83-.002 3.658-.005 5.487 0 .083-.047.2-.11.243-.735.493-1.2 1.157-1.35 2.027a.094.094 0 01-.024.04A.223.223 0 000 19v.835l.038.14c.027.1.054.2.087.299.378 1.14 1.173 1.816 2.352 2.064.035.008.068.02.102.033l.047.017h.844l.048-.017a.732.732 0 01.102-.033c1.352-.278 2.518-1.453 2.477-2.95a2.896 2.896 0 00-.828-2 2.36 2.36 0 01.057-.044c.041-.032.083-.063.12-.1.458-.46 1.021-.698 1.664-.757.232-.022.466-.037.7-.052.342-.022.684-.044 1.024-.086 1.652-.204 2.92-1.05 3.817-2.404.722-1.088 1.032-2.322 1.039-3.625 0-.14.027-.235.158-.322 1.133-.755 1.608-2.068 1.217-3.326-.396-1.27-1.542-2.1-2.904-2.102-1.301-.002-2.44.797-2.86 2.005-.415 1.191-.04 2.52 1.002 3.272.349.252.375.514.328.859a5.443 5.443 0 00-.009.07c-.006.053-.013.106-.022.16-.133.758-.42 1.437-1.04 1.938-.59.473-1.292.595-2.02.602-.708.006-1.4.093-2.074.308-.21.067-.416.141-.626.217l-.292.105v-.852c0-2.007 0-4.005.005-6.003 0-.065.067-.142.122-.193.097-.091.203-.176.308-.262.204-.165.408-.33.558-.535 1.167-1.585.445-3.781-1.45-4.477-.138-.051-.28-.09-.423-.13zm8.495 4.399c.856.006 1.534.666 1.53 1.49-.003.822-.687 1.48-1.54 1.48-.825 0-1.51-.678-1.508-1.49.004-.815.693-1.487 1.518-1.48zM4.548 4.565c-.002-.804-.678-1.474-1.491-1.481-.76-.007-1.555.672-1.56 1.476-.005.804.778 1.49 1.543 1.493.82.005 1.51-.676 1.508-1.488zm.001 14.872a1.51 1.51 0 01-1.509 1.466c-.763-.002-1.549-.689-1.544-1.493.004-.802.802-1.485 1.56-1.478.822.008 1.506.696 1.493 1.505z" fill="#000"/></svg>
